X:282
T:Arthur Darley's
T:Bruckless Shore
T:The Swedish Jig
C:Arthur Darley Senior
D:Mick Moloney, Strings Attached
Z:Nigel Gatherer <gatherer:argonet.co.uk> irtrad-l 2001-8-23
M:6/8
L:1/8
K:D
ABA AGF|EDC D2 D|Ade fed|efc d2 d|Ade fed| edc d3|BAG FED|
M:9/8
ECD DA,B, CDE|
M:6/8
Ddd ede|fef g2 g|fed edc|1d2d dcB:|2d2d d=c_B|]
K:Dm
A2f fef|A2f fef|Aff Agg|Aaa Abb|A2f fef|A2f f2g| fed ed^c|1d3 dcB:|]2d3-d2|]
K:D
e|fed edc|(3ddd d BAG| FED EDC|DA,B, CDE|Ddd ede|fef g2 g|fed edc|d3 d2 e:|]
